build/img/icon-logo_dark.svg

<svg width="148" height="45" viewBox="0 0 148 45" fill="none" xmlns="http://www.w3.org/2000/svg">
<path d="M8.93555 18.3369C8.93555 17.6126 8.74837 17.0674 8.37402 16.7012C8.00781 16.3268 7.33643 15.9403 6.35986 15.5415C4.57764 14.866 3.2959 14.0767 2.51465 13.1733C1.7334 12.2619 1.34277 11.1877 1.34277 9.95068C1.34277 8.45329 1.87174 7.25293 2.92969 6.34961C3.99577 5.43815 5.34668 4.98242 6.98242 4.98242C8.07292 4.98242 9.04541 5.21436 9.8999 5.67822C10.7544 6.13395 11.4095 6.78092 11.8652 7.61914C12.3291 8.45736 12.561 9.40951 12.561 10.4756H8.98438C8.98438 9.64551 8.80534 9.01481 8.44727 8.5835C8.09733 8.14404 7.5887 7.92432 6.92139 7.92432C6.29476 7.92432 5.80648 8.11149 5.45654 8.48584C5.10661 8.85205 4.93164 9.34847 4.93164 9.9751C4.93164 10.4634 5.12695 10.9069 5.51758 11.3057C5.9082 11.6963 6.59993 12.1032 7.59277 12.5264C9.32617 13.153 10.5835 13.922 11.3647 14.8335C12.1541 15.745 12.5488 16.9046 12.5488 18.3125C12.5488 19.8587 12.0565 21.0672 11.0718 21.938C10.0871 22.8088 8.74837 23.2441 7.05566 23.2441C5.9082 23.2441 4.86247 23.0081 3.91846 22.5361C2.97445 22.0641 2.23389 21.3887 1.69678 20.5098C1.16781 19.6309 0.90332 18.5933 0.90332 17.397H4.50439C4.50439 18.4224 4.70378 19.167 5.10254 19.6309C5.5013 20.0947 6.15234 20.3267 7.05566 20.3267C8.30892 20.3267 8.93555 19.6634 8.93555 18.3369ZM20.0928 23.2441C18.3187 23.2441 16.9352 22.7152 15.9424 21.6572C14.9495 20.5993 14.4531 19.0856 14.4531 17.1162V16.0664C14.4531 13.9831 14.9089 12.3758 15.8203 11.2446C16.7318 10.1134 18.0379 9.54785 19.7388 9.54785C21.3989 9.54785 22.6481 10.0809 23.4863 11.147C24.3245 12.2049 24.7518 13.7756 24.7681 15.8589V17.5557H17.8955C17.9443 18.5322 18.16 19.2484 18.5425 19.7041C18.925 20.1517 19.515 20.3755 20.3125 20.3755C21.4681 20.3755 22.4325 19.9808 23.2056 19.1914L24.5605 21.2788C24.1374 21.8647 23.5229 22.3408 22.7173 22.707C21.9116 23.0651 21.0368 23.2441 20.0928 23.2441ZM17.9199 15.1387H21.3745V14.8213C21.3582 14.0319 21.228 13.4338 20.9839 13.0269C20.7397 12.62 20.3166 12.4165 19.7144 12.4165C19.1121 12.4165 18.6727 12.6322 18.396 13.0635C18.1274 13.4948 17.9688 14.1865 17.9199 15.1387ZM33.2397 13.1245L32.0923 13.0269C31.1483 13.0269 30.5094 13.4419 30.1758 14.272V23H26.709V9.79199H29.9683L30.0659 11.2202C30.6112 10.1053 31.3639 9.54785 32.3242 9.54785C32.7148 9.54785 33.0322 9.60075 33.2764 9.70654L33.2397 13.1245ZM39.5752 18.1172L41.2476 9.79199H44.8486L41.2231 23H37.9272L34.2896 9.79199H37.9028L39.5752 18.1172ZM50.0977 23H46.6309V9.79199H50.0977V23ZM46.4722 6.37402C46.4722 5.83691 46.6431 5.39746 46.9849 5.05566C47.3267 4.71387 47.7824 4.54297 48.3521 4.54297C48.9217 4.54297 49.3774 4.71387 49.7192 5.05566C50.061 5.39746 50.2319 5.83691 50.2319 6.37402C50.2319 6.90299 50.061 7.34245 49.7192 7.69238C49.3856 8.04232 48.9299 8.21729 48.3521 8.21729C47.7743 8.21729 47.3145 8.04232 46.9727 7.69238C46.639 7.34245 46.4722 6.90299 46.4722 6.37402ZM57.5439 20.3755C58.5449 20.3755 59.0535 19.7244 59.0698 18.4224H62.3169C62.3006 19.8628 61.8571 21.0265 60.9863 21.9136C60.1156 22.8006 58.9925 23.2441 57.6172 23.2441C55.9163 23.2441 54.6183 22.7152 53.7231 21.6572C52.828 20.5993 52.3722 19.0409 52.356 16.9819V15.9321C52.356 13.8569 52.7954 12.2741 53.6743 11.1836C54.5614 10.0931 55.8675 9.54785 57.5928 9.54785C59.0495 9.54785 60.1969 9.99951 61.0352 10.9028C61.8734 11.798 62.3006 13.0716 62.3169 14.7236H59.0698C59.0617 13.9831 58.9396 13.4134 58.7036 13.0146C58.4676 12.6159 58.077 12.4165 57.5317 12.4165C56.9295 12.4165 56.4982 12.6322 56.2378 13.0635C55.9774 13.4867 55.839 14.3127 55.8228 15.5415V16.8843C55.8228 17.9585 55.8757 18.7113 55.9814 19.1426C56.0872 19.5658 56.2622 19.8791 56.5063 20.0825C56.7505 20.2778 57.0964 20.3755 57.5439 20.3755ZM69.6045 23.2441C67.8304 23.2441 66.4469 22.7152 65.4541 21.6572C64.4613 20.5993 63.9648 19.0856 63.9648 17.1162V16.0664C63.9648 13.9831 64.4206 12.3758 65.332 11.2446C66.2435 10.1134 67.5496 9.54785 69.2505 9.54785C70.9106 9.54785 72.1598 10.0809 72.998 11.147C73.8363 12.2049 74.2635 13.7756 74.2798 15.8589V17.5557H67.4072C67.4561 18.5322 67.6717 19.2484 68.0542 19.7041C68.4367 20.1517 69.0267 20.3755 69.8242 20.3755C70.9798 20.3755 71.9442 19.9808 72.7173 19.1914L74.0723 21.2788C73.6491 21.8647 73.0347 22.3408 72.229 22.707C71.4233 23.0651 70.5485 23.2441 69.6045 23.2441ZM67.4316 15.1387H70.8862V14.8213C70.87 14.0319 70.7397 13.4338 70.4956 13.0269C70.2515 12.62 69.8283 12.4165 69.2261 12.4165C68.6239 12.4165 68.1844 12.6322 67.9077 13.0635C67.6392 13.4948 67.4805 14.1865 67.4316 15.1387ZM82.1655 23V5.22656H86.8652C88.9404 5.22656 90.5924 5.88574 91.8213 7.2041C93.0583 8.52246 93.689 10.3291 93.7134 12.624V15.5049C93.7134 17.8405 93.0949 19.6756 91.8579 21.0103C90.6291 22.3368 88.9323 23 86.7676 23H82.1655ZM85.7544 8.21729V20.0215H86.8286C88.0249 20.0215 88.8672 19.7082 89.3555 19.0815C89.8438 18.4468 90.1001 17.3563 90.1245 15.8101V12.7217C90.1245 11.0615 89.8926 9.90592 89.4287 9.25488C88.9648 8.5957 88.1755 8.24984 87.0605 8.21729H85.7544ZM101.465 23.2441C99.6908 23.2441 98.3073 22.7152 97.3145 21.6572C96.3216 20.5993 95.8252 19.0856 95.8252 17.1162V16.0664C95.8252 13.9831 96.2809 12.3758 97.1924 11.2446C98.1038 10.1134 99.41 9.54785 101.111 9.54785C102.771 9.54785 104.02 10.0809 104.858 11.147C105.697 12.2049 106.124 13.7756 106.14 15.8589V17.5557H99.2676C99.3164 18.5322 99.5321 19.2484 99.9146 19.7041C100.297 20.1517 100.887 20.3755 101.685 20.3755C102.84 20.3755 103.805 19.9808 104.578 19.1914L105.933 21.2788C105.509 21.8647 104.895 22.3408 104.089 22.707C103.284 23.0651 102.409 23.2441 101.465 23.2441ZM99.292 15.1387H102.747V14.8213C102.73 14.0319 102.6 13.4338 102.356 13.0269C102.112 12.62 101.689 12.4165 101.086 12.4165C100.484 12.4165 100.045 12.6322 99.7681 13.0635C99.4995 13.4948 99.3408 14.1865 99.292 15.1387ZM112.256 18.1172L113.928 9.79199H117.529L113.904 23H110.608L106.97 9.79199H110.583L112.256 18.1172ZM122.778 23H119.312V9.79199H122.778V23ZM119.153 6.37402C119.153 5.83691 119.324 5.39746 119.666 5.05566C120.007 4.71387 120.463 4.54297 121.033 4.54297C121.602 4.54297 122.058 4.71387 122.4 5.05566C122.742 5.39746 122.913 5.83691 122.913 6.37402C122.913 6.90299 122.742 7.34245 122.4 7.69238C122.066 8.04232 121.611 8.21729 121.033 8.21729C120.455 8.21729 119.995 8.04232 119.653 7.69238C119.32 7.34245 119.153 6.90299 119.153 6.37402ZM130.225 20.3755C131.226 20.3755 131.734 19.7244 131.75 18.4224H134.998C134.981 19.8628 134.538 21.0265 133.667 21.9136C132.796 22.8006 131.673 23.2441 130.298 23.2441C128.597 23.2441 127.299 22.7152 126.404 21.6572C125.509 20.5993 125.053 19.0409 125.037 16.9819V15.9321C125.037 13.8569 125.476 12.2741 126.355 11.1836C127.242 10.0931 128.548 9.54785 130.273 9.54785C131.73 9.54785 132.878 9.99951 133.716 10.9028C134.554 11.798 134.981 13.0716 134.998 14.7236H131.75C131.742 13.9831 131.62 13.4134 131.384 13.0146C131.148 12.6159 130.758 12.4165 130.212 12.4165C129.61 12.4165 129.179 12.6322 128.918 13.0635C128.658 13.4867 128.52 14.3127 128.503 15.5415V16.8843C128.503 17.9585 128.556 18.7113 128.662 19.1426C128.768 19.5658 128.943 19.8791 129.187 20.0825C129.431 20.2778 129.777 20.3755 130.225 20.3755ZM142.285 23.2441C140.511 23.2441 139.128 22.7152 138.135 21.6572C137.142 20.5993 136.646 19.0856 136.646 17.1162V16.0664C136.646 13.9831 137.101 12.3758 138.013 11.2446C138.924 10.1134 140.23 9.54785 141.931 9.54785C143.591 9.54785 144.84 10.0809 145.679 11.147C146.517 12.2049 146.944 13.7756 146.96 15.8589V17.5557H140.088C140.137 18.5322 140.352 19.2484 140.735 19.7041C141.117 20.1517 141.707 20.3755 142.505 20.3755C143.66 20.3755 144.625 19.9808 145.398 19.1914L146.753 21.2788C146.33 21.8647 145.715 22.3408 144.91 22.707C144.104 23.0651 143.229 23.2441 142.285 23.2441ZM140.112 15.1387H143.567V14.8213C143.551 14.0319 143.42 13.4338 143.176 13.0269C142.932 12.62 142.509 12.4165 141.907 12.4165C141.305 12.4165 140.865 12.6322 140.588 13.0635C140.32 13.4948 140.161 14.1865 140.112 15.1387Z" fill="#203C42"/>
<path d="M2.94727 38.9609L4.23633 34.6602H5.75391L3.23438 41.9609C2.84766 43.0273 2.19141 43.5605 1.26562 43.5605C1.05859 43.5605 0.830078 43.5254 0.580078 43.4551V42.3535L0.849609 42.3711C1.20898 42.3711 1.47852 42.3047 1.6582 42.1719C1.8418 42.043 1.98633 41.8242 2.0918 41.5156L2.29688 40.9707L0.0703125 34.6602H1.60547L2.94727 38.9609ZM10.3418 39.248L12.2168 34.6602H13.998V41H12.5742V36.8047L10.8281 41H9.86133L8.10938 36.7812V41H6.68555V34.6602H8.47852L10.3418 39.248ZM20.9707 41H19.5469V38.4395H17.0801V41H15.6562V34.6602H17.0801V37.3027H19.5469V34.6602H20.9707V41ZM24.0234 36.6758H25.418C25.9375 36.6758 26.3906 36.7656 26.7773 36.9453C27.1641 37.125 27.457 37.377 27.6562 37.7012C27.8594 38.0254 27.9609 38.4023 27.9609 38.832C27.9609 39.4844 27.7305 40.0078 27.2695 40.4023C26.8086 40.7969 26.1953 40.9961 25.4297 41H22.5996V34.6602H24.0234V36.6758ZM30.4395 41H29.0156V34.6602H30.4395V41ZM24.0234 37.8184V39.8633H25.4121C25.7598 39.8633 26.0332 39.7773 26.2324 39.6055C26.4355 39.4297 26.5371 39.1816 26.5371 38.8613C26.5371 38.541 26.4375 38.2891 26.2383 38.1055C26.043 37.918 25.7773 37.8223 25.4414 37.8184H24.0234ZM34.9395 41.1172C34.0371 41.1172 33.3047 40.834 32.7422 40.2676C32.1836 39.6973 31.9043 38.9395 31.9043 37.9941V37.8184C31.9043 37.1855 32.0254 36.6211 32.2676 36.125C32.5137 35.625 32.8574 35.2363 33.2988 34.959C33.7402 34.6816 34.2324 34.543 34.7754 34.543C35.6387 34.543 36.3047 34.8184 36.7734 35.3691C37.2461 35.9199 37.4824 36.6992 37.4824 37.707V38.2812H33.3398C33.3828 38.8047 33.5566 39.2188 33.8613 39.5234C34.1699 39.8281 34.5566 39.9805 35.0215 39.9805C35.6738 39.9805 36.2051 39.7168 36.6152 39.1895L37.3828 39.9219C37.1289 40.3008 36.7891 40.5957 36.3633 40.8066C35.9414 41.0137 35.4668 41.1172 34.9395 41.1172ZM34.7695 35.6855C34.3789 35.6855 34.0625 35.8223 33.8203 36.0957C33.582 36.3691 33.4297 36.75 33.3633 37.2383H36.0762V37.1328C36.0449 36.6562 35.918 36.2969 35.6953 36.0547C35.4727 35.8086 35.1641 35.6855 34.7695 35.6855ZM46.5703 35.791H44.5137V41H43.0898V35.791H41.0566V34.6602H46.5703V35.791ZM49.9395 41.1172C49.0371 41.1172 48.3047 40.834 47.7422 40.2676C47.1836 39.6973 46.9043 38.9395 46.9043 37.9941V37.8184C46.9043 37.1855 47.0254 36.6211 47.2676 36.125C47.5137 35.625 47.8574 35.2363 48.2988 34.959C48.7402 34.6816 49.2324 34.543 49.7754 34.543C50.6387 34.543 51.3047 34.8184 51.7734 35.3691C52.2461 35.9199 52.4824 36.6992 52.4824 37.707V38.2812H48.3398C48.3828 38.8047 48.5566 39.2188 48.8613 39.5234C49.1699 39.8281 49.5566 39.9805 50.0215 39.9805C50.6738 39.9805 51.2051 39.7168 51.6152 39.1895L52.3828 39.9219C52.1289 40.3008 51.7891 40.5957 51.3633 40.8066C50.9414 41.0137 50.4668 41.1172 49.9395 41.1172ZM49.7695 35.6855C49.3789 35.6855 49.0625 35.8223 48.8203 36.0957C48.582 36.3691 48.4297 36.75 48.3633 37.2383H51.0762V37.1328C51.0449 36.6562 50.918 36.2969 50.6953 36.0547C50.4727 35.8086 50.1641 35.6855 49.7695 35.6855ZM55.8691 36.7461L57.0762 34.6602H58.6582L56.7188 37.7832L58.7227 41H57.1523L55.8867 38.832L54.627 41H53.0449L55.0488 37.7832L53.1152 34.6602H54.6855L55.8691 36.7461ZM64.998 41H63.5742V38.4395H61.1074V41H59.6836V34.6602H61.1074V37.3027H63.5742V34.6602H64.998V41ZM66.252 37.7715C66.252 37.1504 66.375 36.5918 66.6211 36.0957C66.8672 35.5957 67.2129 35.2129 67.6582 34.9473C68.1035 34.6777 68.6152 34.543 69.1934 34.543C70.0488 34.543 70.7422 34.8184 71.2734 35.3691C71.8086 35.9199 72.0977 36.6504 72.1406 37.5605L72.1465 37.8945C72.1465 38.5195 72.0254 39.0781 71.7832 39.5703C71.5449 40.0625 71.2012 40.4434 70.752 40.7129C70.3066 40.9824 69.791 41.1172 69.2051 41.1172C68.3105 41.1172 67.5938 40.8203 67.0547 40.2266C66.5195 39.6289 66.252 38.834 66.252 37.8418V37.7715ZM67.6758 37.8945C67.6758 38.5469 67.8105 39.0586 68.0801 39.4297C68.3496 39.7969 68.7246 39.9805 69.2051 39.9805C69.6855 39.9805 70.0586 39.793 70.3242 39.418C70.5938 39.043 70.7285 38.4941 70.7285 37.7715C70.7285 37.1309 70.5898 36.623 70.3125 36.248C70.0391 35.873 69.666 35.6855 69.1934 35.6855C68.7285 35.6855 68.3594 35.8711 68.0859 36.2422C67.8125 36.6094 67.6758 37.1602 67.6758 37.8945ZM78.6445 34.6602V41H77.2207V35.8086H75.4277L75.3105 38.0176C75.2363 39.0801 75.0312 39.8438 74.6953 40.3086C74.3633 40.7695 73.8535 41 73.166 41H72.7266L72.7207 39.8164L73.0137 39.7871C73.3262 39.7441 73.5527 39.5547 73.6934 39.2188C73.8379 38.8789 73.9297 38.2617 73.9688 37.3672L74.0859 34.6602H78.6445ZM79.8926 37.7715C79.8926 37.1504 80.0156 36.5918 80.2617 36.0957C80.5078 35.5957 80.8535 35.2129 81.2988 34.9473C81.7441 34.6777 82.2559 34.543 82.834 34.543C83.6895 34.543 84.3828 34.8184 84.9141 35.3691C85.4492 35.9199 85.7383 36.6504 85.7812 37.5605L85.7871 37.8945C85.7871 38.5195 85.666 39.0781 85.4238 39.5703C85.1855 40.0625 84.8418 40.4434 84.3926 40.7129C83.9473 40.9824 83.4316 41.1172 82.8457 41.1172C81.9512 41.1172 81.2344 40.8203 80.6953 40.2266C80.1602 39.6289 79.8926 38.834 79.8926 37.8418V37.7715ZM81.3164 37.8945C81.3164 38.5469 81.4512 39.0586 81.7207 39.4297C81.9902 39.7969 82.3652 39.9805 82.8457 39.9805C83.3262 39.9805 83.6992 39.793 83.9648 39.418C84.2344 39.043 84.3691 38.4941 84.3691 37.7715C84.3691 37.1309 84.2305 36.623 83.9531 36.248C83.6797 35.873 83.3066 35.6855 82.834 35.6855C82.3691 35.6855 82 35.8711 81.7266 36.2422C81.4531 36.6094 81.3164 37.1602 81.3164 37.8945ZM91.2129 35.8086H88.459V41H87.041V34.6602H91.2129V35.8086ZM95.9766 34.6602H97.3945V41H95.9766V36.7695L93.4922 41H92.0742V34.6602H93.4922V38.8906L95.9766 34.6602ZM102.867 34.6602H104.285V41H102.867V36.7695L100.383 41H98.9648V34.6602H100.383V38.8906L102.867 34.6602Z" fill="#788891"/>
</svg>

<svg width="148" height="45" fill="none" xmlns="http://www.w3.org/2000/svg"><path d="M8.936 18.337c0-.724-.188-1.27-.562-1.636-.366-.374-1.038-.76-2.014-1.16-1.782-.675-3.064-1.464-3.845-2.368-.782-.911-1.172-1.985-1.172-3.222 0-1.498.529-2.698 1.587-3.601 1.066-.912 2.417-1.368 4.052-1.368 1.09 0 2.063.232 2.918.696a4.708 4.708 0 011.965 1.941c.464.838.696 1.79.696 2.857H8.984c0-.83-.179-1.461-.537-1.893-.35-.439-.858-.659-1.526-.659-.626 0-1.115.187-1.464.562-.35.366-.525.862-.525 1.49 0 .487.195.93.586 1.33.39.39 1.082.797 2.075 1.22 1.733.627 2.99 1.396 3.772 2.308.79.911 1.184 2.07 1.184 3.479 0 1.546-.492 2.754-1.477 3.625-.985.87-2.324 1.306-4.016 1.306-1.148 0-2.194-.236-3.138-.708a5.35 5.35 0 01-2.221-2.026c-.53-.88-.794-1.917-.794-3.113h3.601c0 1.025.2 1.77.599 2.234.398.464 1.05.696 1.953.696 1.253 0 1.88-.664 1.88-1.99zm11.157 4.907c-1.774 0-3.158-.529-4.15-1.587-.993-1.058-1.49-2.571-1.49-4.54v-1.05c0-2.084.456-3.691 1.367-4.822.912-1.132 2.218-1.697 3.919-1.697 1.66 0 2.91.533 3.747 1.599.838 1.058 1.266 2.629 1.282 4.712v1.697h-6.873c.05.976.265 1.692.648 2.148.382.448.972.671 1.77.671 1.155 0 2.12-.394 2.893-1.184l1.355 2.088c-.424.586-1.038 1.062-1.844 1.428a6.388 6.388 0 01-2.624.537zM17.92 15.14h3.454v-.318c-.016-.79-.146-1.387-.39-1.794-.244-.407-.667-.61-1.27-.61-.602 0-1.041.215-1.318.646-.269.432-.427 1.123-.476 2.076zm15.32-2.014l-1.148-.098c-.944 0-1.583.415-1.916 1.245V23h-3.467V9.792h3.26l.097 1.428c.545-1.115 1.298-1.672 2.258-1.672.39 0 .708.053.952.159l-.036 3.417zm6.335 4.992l1.673-8.325h3.6L41.224 23h-3.296L34.29 9.792h3.613l1.672 8.325zM50.098 23H46.63V9.792h3.467V23zM46.472 6.374c0-.537.171-.977.513-1.318.342-.342.797-.513 1.367-.513s1.025.17 1.367.513c.342.341.513.78.513 1.318 0 .529-.171.968-.513 1.318-.333.35-.79.525-1.367.525-.578 0-1.037-.175-1.38-.525-.333-.35-.5-.789-.5-1.318zm11.072 14.002c1 0 1.51-.652 1.526-1.954h3.247c-.016 1.44-.46 2.604-1.33 3.492-.871.887-1.995 1.33-3.37 1.33-1.7 0-2.999-.529-3.894-1.587-.895-1.058-1.35-2.616-1.367-4.675v-1.05c0-2.075.44-3.658 1.318-4.748.887-1.09 2.194-1.636 3.919-1.636 1.456 0 2.604.452 3.442 1.355.838.895 1.266 2.169 1.282 3.82H59.07c-.008-.74-.13-1.31-.366-1.708-.236-.4-.627-.599-1.172-.599-.602 0-1.034.216-1.294.647-.26.424-.399 1.25-.415 2.478v1.343c0 1.075.053 1.827.158 2.259.106.423.281.736.525.94.245.195.59.293 1.038.293zm12.06 2.868c-1.774 0-3.157-.529-4.15-1.587-.993-1.058-1.49-2.571-1.49-4.54v-1.05c0-2.084.457-3.691 1.368-4.822.912-1.132 2.218-1.697 3.919-1.697 1.66 0 2.909.533 3.747 1.599.838 1.058 1.265 2.629 1.282 4.712v1.697h-6.873c.05.976.265 1.692.647 2.148.383.448.973.671 1.77.671 1.156 0 2.12-.394 2.893-1.184l1.355 2.088c-.423.586-1.037 1.062-1.843 1.428a6.388 6.388 0 01-2.624.537zm-2.172-8.105h3.454v-.318c-.016-.79-.146-1.387-.39-1.794-.245-.407-.668-.61-1.27-.61s-1.042.215-1.318.646c-.269.432-.427 1.123-.476 2.076zM82.165 23V5.227h4.7c2.075 0 3.727.659 4.956 1.977 1.237 1.318 1.868 3.125 1.892 5.42v2.88c0 2.336-.618 4.172-1.855 5.506-1.229 1.327-2.926 1.99-5.09 1.99h-4.603zm3.59-14.783v11.804h1.074c1.196 0 2.038-.313 2.527-.94.488-.634.744-1.725.769-3.27v-3.09c0-1.66-.232-2.815-.696-3.466-.464-.66-1.254-1.005-2.368-1.038h-1.307zm15.71 15.027c-1.774 0-3.158-.529-4.15-1.587-.993-1.058-1.49-2.571-1.49-4.54v-1.05c0-2.084.456-3.691 1.367-4.822.912-1.132 2.218-1.697 3.919-1.697 1.66 0 2.909.533 3.747 1.599.839 1.058 1.266 2.629 1.282 4.712v1.697h-6.872c.048.976.264 1.692.647 2.148.382.448.972.671 1.77.671 1.155 0 2.12-.394 2.893-1.184l1.355 2.088c-.424.586-1.038 1.062-1.844 1.428a6.383 6.383 0 01-2.624.537zm-2.173-8.105h3.455v-.318c-.017-.79-.147-1.387-.391-1.794-.244-.407-.667-.61-1.27-.61-.602 0-1.041.215-1.318.646-.269.432-.427 1.123-.476 2.076zm12.964 2.978l1.672-8.325h3.601L113.904 23h-3.296L106.97 9.792h3.613l1.673 8.325zM122.778 23h-3.466V9.792h3.466V23zm-3.625-16.626c0-.537.171-.977.513-1.318.341-.342.797-.513 1.367-.513.569 0 1.025.17 1.367.513.342.341.513.78.513 1.318 0 .529-.171.968-.513 1.318-.334.35-.789.525-1.367.525s-1.038-.175-1.38-.525c-.333-.35-.5-.789-.5-1.318zm11.072 14.002c1.001 0 1.509-.652 1.525-1.954h3.248c-.017 1.44-.46 2.604-1.331 3.492-.871.887-1.994 1.33-3.369 1.33-1.701 0-2.999-.529-3.894-1.587-.895-1.058-1.351-2.616-1.367-4.675v-1.05c0-2.075.439-3.658 1.318-4.748.887-1.09 2.193-1.636 3.918-1.636 1.457 0 2.605.452 3.443 1.355.838.895 1.265 2.169 1.282 3.82h-3.248c-.008-.74-.13-1.31-.366-1.708-.236-.4-.626-.599-1.172-.599-.602 0-1.033.216-1.294.647-.26.424-.398 1.25-.415 2.478v1.343c0 1.075.053 1.827.159 2.259.106.423.281.736.525.94.244.195.59.293 1.038.293zm12.06 2.868c-1.774 0-3.157-.529-4.15-1.587-.993-1.058-1.489-2.571-1.489-4.54v-1.05c0-2.084.455-3.691 1.367-4.822.911-1.132 2.217-1.697 3.918-1.697 1.66 0 2.909.533 3.748 1.599.838 1.058 1.265 2.629 1.281 4.712v1.697h-6.872c.049.976.264 1.692.647 2.148.382.448.972.671 1.77.671 1.155 0 2.12-.394 2.893-1.184l1.355 2.088c-.423.586-1.038 1.062-1.843 1.428a6.392 6.392 0 01-2.625.537zm-2.173-8.105h3.455v-.318c-.016-.79-.147-1.387-.391-1.794-.244-.407-.667-.61-1.269-.61-.602 0-1.042.215-1.319.646-.268.432-.427 1.123-.476 2.076z" fill="#203C42"/><path d="M2.947 38.96l1.29-4.3h1.517l-2.52 7.3c-.386 1.067-1.043 1.6-1.968 1.6a2.55 2.55 0 01-.686-.105v-1.102l.27.018c.359 0 .629-.066.808-.2.184-.128.328-.347.434-.655l.205-.545L.07 34.66h1.535l1.342 4.3zm7.395.288l1.875-4.588h1.781V41h-1.424v-4.195L10.828 41h-.967L8.11 36.781V41H6.686v-6.34h1.793l1.863 4.588zM20.97 41h-1.424v-2.56H17.08V41h-1.424v-6.34h1.424v2.643h2.467V34.66h1.424V41zm3.052-4.324h1.395c.52 0 .973.09 1.36.27.386.179.679.431.878.755.203.324.305.701.305 1.131 0 .652-.23 1.176-.691 1.57-.461.395-1.075.594-1.84.598H22.6v-6.34h1.423v2.016zM30.44 41h-1.423v-6.34h1.424V41zm-6.416-3.182v2.045h1.39c.347 0 .62-.086.82-.258.203-.175.304-.423.304-.744 0-.32-.1-.572-.299-.755-.195-.188-.46-.284-.797-.288h-1.418zm10.917 3.3c-.903 0-1.635-.284-2.198-.85-.558-.57-.838-1.328-.838-2.274v-.176c0-.633.121-1.197.364-1.693.246-.5.59-.889 1.03-1.166a2.718 2.718 0 011.477-.416c.864 0 1.53.275 1.998.826.473.55.71 1.33.71 2.338v.574H33.34c.043.524.217.938.521 1.242.309.305.696.457 1.16.457.653 0 1.184-.263 1.594-.79l.768.732a2.58 2.58 0 01-1.02.885c-.422.207-.896.31-1.423.31zm-.17-5.433c-.391 0-.708.137-.95.41-.238.274-.39.655-.457 1.143h2.713v-.105c-.031-.477-.158-.836-.38-1.078-.223-.246-.532-.37-.926-.37zm11.8.106h-2.056V41H43.09v-5.209h-2.033v-1.13h5.513v1.13zm3.37 5.326c-.903 0-1.635-.283-2.198-.85-.558-.57-.838-1.328-.838-2.273v-.176c0-.633.121-1.197.364-1.693.246-.5.59-.889 1.03-1.166a2.718 2.718 0 011.477-.416c.864 0 1.53.275 1.998.826.473.55.71 1.33.71 2.338v.574H48.34c.043.524.217.938.521 1.242.309.305.696.457 1.16.457.653 0 1.184-.263 1.594-.79l.768.732a2.58 2.58 0 01-1.02.885c-.422.207-.896.31-1.423.31zm-.17-5.431c-.391 0-.708.136-.95.41-.238.273-.39.654-.457 1.142h2.713v-.105c-.031-.477-.158-.836-.38-1.078-.223-.246-.532-.37-.926-.37zm6.1 1.06l1.206-2.086h1.582l-1.94 3.123L58.724 41h-1.57l-1.266-2.168L54.627 41h-1.582l2.004-3.217-1.934-3.123h1.57l1.184 2.086zM64.997 41h-1.424v-2.56h-2.467V41h-1.423v-6.34h1.423v2.643h2.467V34.66h1.424V41zm1.254-3.228c0-.622.123-1.18.37-1.676.245-.5.59-.883 1.036-1.149.445-.27.957-.404 1.535-.404.856 0 1.55.275 2.08.826.536.55.825 1.281.868 2.191l.005.334c0 .626-.12 1.184-.363 1.676a2.64 2.64 0 01-1.031 1.143c-.445.27-.961.404-1.547.404-.894 0-1.611-.297-2.15-.89-.536-.598-.803-1.393-.803-2.385v-.07zm1.424.123c0 .652.135 1.164.404 1.535.27.367.645.55 1.125.55s.854-.187 1.12-.562c.269-.375.403-.924.403-1.646 0-.641-.138-1.149-.415-1.524a1.311 1.311 0 00-1.12-.563c-.465 0-.834.186-1.107.557-.273.367-.41.918-.41 1.653zm10.968-3.235V41H77.22v-5.191h-1.793l-.117 2.209c-.075 1.062-.28 1.826-.616 2.29-.332.462-.841.692-1.529.692h-.44l-.005-1.184.293-.029c.312-.043.539-.232.68-.568.144-.34.236-.957.275-1.852l.117-2.707h4.558zm1.249 3.112c0-.622.123-1.18.369-1.676.246-.5.591-.883 1.037-1.149.445-.27.957-.404 1.535-.404.855 0 1.549.275 2.08.826.535.55.824 1.281.867 2.191l.006.334c0 .626-.121 1.184-.363 1.676a2.64 2.64 0 01-1.031 1.143c-.446.27-.961.404-1.547.404-.895 0-1.612-.297-2.15-.89-.536-.598-.803-1.393-.803-2.385v-.07zm1.423.123c0 .652.135 1.164.405 1.535.27.367.644.55 1.125.55.48 0 .853-.187 1.119-.562.27-.375.404-.924.404-1.646 0-.641-.138-1.149-.416-1.524a1.311 1.311 0 00-1.119-.563c-.465 0-.834.186-1.107.557-.274.367-.41.918-.41 1.653zm9.897-2.086h-2.754V41H87.04v-6.34h4.172v1.149zm4.764-1.149h1.417V41h-1.417v-4.23L93.492 41h-1.418v-6.34h1.418v4.23l2.485-4.23zm6.89 0h1.418V41h-1.418v-4.23L100.383 41h-1.418v-6.34h1.418v4.23l2.484-4.23z" fill="#788891"/></svg>
